src/sentry/static/sentry/images/logos/logo-flowdock.svg

<svg xmlns="http://www.w3.org/2000/svg" viewBox="0 0 80 80"><path d="M60 25v12.67H48.14v41.45a37.17 37.17 0 01-14.6.3v-1.93-53.45a35.08 35.08 0 01.76-7.73C36.79 5.67 46.66.35 57 4a23.86 23.86 0 019.49 6l-6.27 7.78c-3.22-2.18-6.46-2.94-9.63-1.18S48.12 21.68 48 25z" fill="#333"/><path d="M40 0a40 40 0 018.33.87c-7.92.89-14.1 6.57-16 15a36.11 36.11 0 00-.86 8.13v1.22A161.88 161.88 0 015 20.59 40 40 0 0140 0z" fill="#ee6e2a"/><path d="M31.47 25.25v14.88C12.34 41.65.8 48 .8 48A40.05 40.05 0 015 20.59a161.88 161.88 0 0026.47 4.66z" fill="#ffe256"/><path d="M31.43 64.55v14.51A40.07 40.07 0 012.65 54.32s17.23 1.88 28.78 2.22z" fill="#0997e0"/><path d="M31.44 40.13v16.41c-11.56-.34-28.79-2.22-28.79-2.22A38.65 38.65 0 01.8 48s11.54-6.35 30.64-7.87z" fill="#48d2f8"/></svg>

<svg xmlns="http://www.w3.org/2000/svg" viewBox="0 0 80 80"><title>logos</title><path d="M60,25V37.67H48.14V79.12a37.17,37.17,0,0,1-14.6.3V77.49c0-17.82,0-35.64,0-53.45a35.08,35.08,0,0,1,.76-7.73C36.79,5.67,46.66.35,57,4a23.86,23.86,0,0,1,9.49,6l-6.27,7.78c-3.22-2.18-6.46-2.94-9.63-1.18S48.12,21.68,48,25Z" style="fill:#333"/><path d="M40,0a40,40,0,0,1,8.33.87c-7.92.89-14.1,6.57-16,15A36.11,36.11,0,0,0,31.47,24v1.22A161.88,161.88,0,0,1,5,20.59,40,40,0,0,1,40,0Z" style="fill:#ee6e2a"/><path d="M31.47,25.25c0,4.94,0,9.92,0,14.88C12.34,41.65.8,48,.8,48A40.05,40.05,0,0,1,5,20.59,161.88,161.88,0,0,0,31.47,25.25Z" style="fill:#ffe256"/><path d="M31.43,64.55V79.06A40.07,40.07,0,0,1,2.65,54.32s17.23,1.88,28.78,2.22Z" style="fill:#0997e0"/><path d="M31.44,40.13c0,5.49,0,11,0,16.41C19.88,56.2,2.65,54.32,2.65,54.32A38.65,38.65,0,0,1,.8,48S12.34,41.65,31.44,40.13Z" style="fill:#48d2f8"/></svg>
